actions/24/format-currency.svg

<?xml version="1.0" encoding="UTF-8" standalone="no"?>
<svg
   width="24"
   height="24"
   version="1.1"
   id="svg9"
   sodipodi:docname="format-currency.svg"
   inkscape:version="1.1.2 (0a00cf5339, 2022-02-04)"
   xmlns:inkscape="http://www.inkscape.org/namespaces/inkscape"
   xmlns:sodipodi="http://sodipodi.sourceforge.net/DTD/sodipodi-0.dtd"
   xmlns="http://www.w3.org/2000/svg"
   xmlns:svg="http://www.w3.org/2000/svg">
  <sodipodi:namedview
     id="namedview11"
     pagecolor="#959595"
     bordercolor="#666666"
     borderopacity="1.0"
     inkscape:pageshadow="2"
     inkscape:pageopacity="0"
     inkscape:pagecheckerboard="0"
     showgrid="false"
     inkscape:zoom="56.833333"
     inkscape:cx="11.991202"
     inkscape:cy="11.982405"
     inkscape:window-width="1596"
     inkscape:window-height="967"
     inkscape:window-x="0"
     inkscape:window-y="29"
     inkscape:window-maximized="1"
     inkscape:current-layer="g7" />
  <defs
     id="defs3">
    <style
       id="current-color-scheme"
       type="text/css">
   .ColorScheme-Text { color:#eeeeec; } .ColorScheme-Highlight { color:#367bf0; } .ColorScheme-NeutralText { color:#ffcc44; } .ColorScheme-PositiveText { color:#3db47e; } .ColorScheme-NegativeText { color:#dd4747; }
  </style>
  </defs>
  <g
     transform="matrix(1,0,0,1,4,4)"
     id="g7">
    <path
       style="fill:currentColor"
       class="ColorScheme-Text"
       d="M 6,0 V 2 C 4,2 2,3.5 2,5.5 2,7.5 4,9 6,9 v 3 H 4 c 0,0 -1,0 -1,1 0,1 1,1 1,1 h 2 v 2 h 1 v -2 h 1 v 2 h 1 v -2 c 2,0 4,-1.5 4,-3.5 C 13,8.5 12,7 9,7 V 4 h 2 C 11,4 12,4 12,3 12,2 11,2 11,2 H 9 V 0 H 8 V 2 H 7 V 0 Z M 8,4 V 7 H 7 V 4 Z M 6,4.2386528 v 0 2.5157467 0 c -0.080011,0 -0.1571768,0.2441779 -0.2315732,0.2413327 C 4.4480819,6.9452367 4,6.4466593 4,5.5 4,4.5368875 4.4637928,4.0375679 5.8380632,4.002041 5.8906982,4.0006803 5.9446687,4.2386528 6,4.2386528 Z M 7,9 h 1 v 3 H 7 Z m 2,0.2000861 c 0.087052,0 0.170736,-0.1984021 0.2511496,-0.1950341 C 10.556351,9.0597187 11,9.5580347 11,10.5 c 0,0.936939 -0.438928,1.434951 -1.7280312,1.494035 -0.086763,0.004 0.094591,0 0,0 L 9,11.663422 Z"
       id="path5"
       sodipodi:nodetypes="ccscccscccccccccscccscccccccccccccccccssscccccccssscccc" />
  </g>
</svg>

<svg xmlns="http://www.w3.org/2000/svg" width="24" height="24" version="1.1">
 <defs>
  <style id="current-color-scheme" type="text/css">
   .ColorScheme-Text { color:#eeeeec; } .ColorScheme-Highlight { color:#367bf0; } .ColorScheme-NeutralText { color:#ffcc44; } .ColorScheme-PositiveText { color:#3db47e; } .ColorScheme-NegativeText { color:#dd4747; }
  </style>
 </defs>
 <g transform="matrix(1,0,0,1,4,4)">
  <path style="fill:currentColor" class="ColorScheme-Text" d="M 6,0 V 2 C 4,2 2,3.5 2,5.5 2,7.5 4,9 6,9 V 12 H 4 C 4,12 3,12 3,13 3,14 4,14 4,14 H 6 V 16 H 7 V 14 H 8 V 16 H 9 V 14 C 11,14 13,12.5 13,10.5 13,8.5 12,7 9,7 V 4 H 11 C 11,4 12,4 12,3 12,2 11,2 11,2 H 9 V 0 H 8 V 2 H 7 V 0 Z M 8,4 V 7 H 7 V 4 Z M 6,4 V 7 C 4.5,7 4,6.5 4,5.5 4,4.5 4.5,4 6,4 Z M 7,9 H 8 V 12 H 7 Z M 9,9 C 10.5,9 11,9.5 11,10.5 11,11.5 10.5,12 9,12 Z"/>
 </g>
</svg>
